X: 3917
T: Blackberry, The
R: jig
M: 6/8
K: Gmajor
EFE BGE|GBe BGE|DED AFD|FAd AFD|
EFE BGE|GBe Beg|bag agf|1 geB AGF:|2 Be^d e2f||
gBB dBA|GBd eag|aec Aab|aec def|
gBB dBA|GBd eag|1 fdd cdf|agf g2f:|2 fdd cAF|DGF G3||

